X:1904
T:Bourrée de Maurienges
M:3/8
L:1/16
K:C
f4e2|d2e2f2|g2gfga|gfgag2|\
f4e2|d2e2f2|g2gfga|g6:|
|:defgfe|dfe2c2|Bcdedc|Bcd4|\
defgfe|dfe2c2|Bcdedc|c6:|


